src/css/fonts/SVGs/socials/discord.svg

<?xml version="1.0" encoding="UTF-8"?>
<svg xmlns="http://www.w3.org/2000/svg" xmlns:xlink="http://www.w3.org/1999/xlink" width="48pt" height="48pt" viewBox="0 0 48 48" version="1.1">
<g id="surface1">
<path style=" stroke:none;fill-rule:nonzero;fill:black;fill-opacity:1;" d="M 7.160156 32.832031 C 8.023438 33.929688 9.113281 34.769531 10.222656 35.59375 C 11.851562 36.796875 13.640625 37.707031 15.53125 38.414062 C 15.851562 38.535156 15.9375 38.617188 15.691406 38.921875 C 15.21875 39.5 14.785156 40.117188 14.339844 40.71875 C 14.222656 40.882812 14.09375 40.984375 13.875 40.964844 C 8.664062 40.492188 4.050781 38.707031 0.371094 34.839844 C 0.101562 34.558594 -0.0234375 34.304688 0.00390625 33.867188 C 0.28125 29.550781 0.957031 25.304688 2.085938 21.132812 C 3.027344 17.648438 4.28125 14.292969 6.027344 11.121094 C 6.5625 10.148438 7.445312 9.671875 8.308594 9.144531 C 10.640625 7.726562 13.140625 6.710938 15.828125 6.199219 C 16.164062 6.136719 16.5 6.085938 16.839844 6.050781 C 17.417969 5.988281 17.796875 6.300781 17.886719 6.886719 C 17.933594 7.183594 17.667969 7.113281 17.550781 7.140625 C 16.359375 7.433594 15.191406 7.804688 14.058594 8.285156 C 11.84375 9.222656 9.867188 10.53125 8.085938 12.199219 C 18.675781 6.738281 29.246094 6.71875 39.808594 12.230469 C 39.875 11.992188 39.65625 11.941406 39.546875 11.839844 C 37.046875 9.566406 34.101562 8.128906 30.855469 7.273438 C 30.839844 7.269531 30.824219 7.269531 30.808594 7.265625 C 29.996094 7.058594 29.914062 6.769531 30.453125 6.105469 C 30.585938 5.945312 30.714844 6.011719 30.867188 6.023438 C 32.929688 6.183594 34.867188 6.804688 36.746094 7.632812 C 37.933594 8.15625 39.054688 8.800781 40.175781 9.457031 C 41.160156 10.03125 41.8125 10.832031 42.328125 11.828125 C 44.121094 15.304688 45.382812 18.964844 46.292969 22.757812 C 47.058594 25.941406 47.566406 29.167969 47.847656 32.429688 C 47.898438 33.007812 47.867188 33.59375 47.988281 34.160156 C 48.050781 34.4375 47.839844 34.5625 47.699219 34.71875 C 45.007812 37.65625 41.640625 39.414062 37.820312 40.375 C 36.59375 40.679688 35.347656 40.835938 34.097656 40.964844 C 33.851562 40.988281 33.726562 40.859375 33.597656 40.683594 C 33.167969 40.09375 32.742188 39.492188 32.277344 38.925781 C 32.042969 38.636719 32.085938 38.542969 32.425781 38.414062 C 34.660156 37.582031 36.734375 36.457031 38.59375 34.949219 C 39.382812 34.304688 40.179688 33.660156 40.800781 32.835938 C 40.84375 32.804688 40.945312 32.800781 40.894531 32.726562 C 40.855469 32.667969 40.785156 32.710938 40.746094 32.769531 C 39.640625 33.441406 38.570312 34.160156 37.410156 34.742188 C 34.535156 36.179688 31.492188 37.039062 28.308594 37.414062 C 26.683594 37.601562 25.054688 37.726562 23.421875 37.6875 C 18.632812 37.574219 14.03125 36.683594 9.792969 34.332031 C 8.917969 33.84375 8.078125 33.292969 7.222656 32.769531 C 7.183594 32.742188 7.144531 32.710938 7.105469 32.679688 C 7.070312 32.65625 7.035156 32.628906 7 32.609375 C 6.996094 32.605469 6.96875 32.640625 6.953125 32.65625 C 6.996094 32.675781 7.035156 32.691406 7.074219 32.710938 C 7.101562 32.75 7.132812 32.792969 7.160156 32.832031 Z M 27.25 25.671875 C 27.230469 26.386719 27.417969 27.058594 27.699219 27.703125 C 28.792969 30.214844 31.816406 30.804688 33.664062 28.871094 C 35.457031 26.996094 35.261719 23.699219 33.261719 22.0625 C 31.992188 21.027344 30.144531 21.035156 28.882812 22.078125 C 27.753906 23.011719 27.292969 24.246094 27.25 25.671875 Z M 16.914062 21.292969 C 16.21875 21.261719 15.597656 21.464844 15.027344 21.835938 C 12.734375 23.316406 12.386719 26.921875 14.339844 28.914062 C 15.785156 30.386719 17.9375 30.398438 19.394531 28.941406 C 20.757812 27.574219 21.117188 25.328125 20.226562 23.542969 C 19.546875 22.175781 18.488281 21.347656 16.914062 21.292969 Z M 16.914062 21.292969 "/>
</g>
</svg>

<svg xmlns="http://www.w3.org/2000/svg" viewBox="0 0 48 48">
  <path d="M7.16 32.832c.863 1.098 1.953 1.938 3.063 2.762 1.629 1.203 3.418 2.113 5.308 2.82.32.121.406.203.16.508-.472.578-.906 1.195-1.351 1.797-.117.164-.246.265-.465.246-5.21-.473-9.824-2.258-13.504-6.125-.27-.281-.394-.535-.367-.973.277-4.316.953-8.562 2.082-12.734.941-3.485 2.195-6.84 3.941-10.012.535-.973 1.418-1.45 2.282-1.976 2.332-1.418 4.832-2.434 7.52-2.946a12.73 12.73 0 0 1 1.01-.148c.579-.063.958.25 1.048.836.047.297-.219.226-.336.254-1.192.293-2.36.664-3.492 1.144-2.215.938-4.192 2.246-5.973 3.914 10.59-5.46 21.16-5.48 31.723.031.066-.238-.153-.289-.262-.39-2.5-2.274-5.445-3.711-8.692-4.567-.015-.003-.03-.003-.046-.007-.813-.207-.895-.496-.356-1.16.133-.16.262-.094.414-.083 2.063.16 4 .782 5.88 1.61 1.187.523 2.308 1.168 3.429 1.824.984.574 1.636 1.375 2.152 2.371 1.793 3.477 3.055 7.137 3.965 10.93a65.288 65.288 0 0 1 1.555 9.672c.05.578.02 1.164.14 1.73.063.278-.148.403-.289.559-2.691 2.937-6.058 4.695-9.879 5.656-1.226.305-2.472.46-3.722.59-.246.023-.371-.106-.5-.281-.43-.59-.856-1.192-1.32-1.758-.235-.29-.192-.383.148-.512 2.234-.832 4.308-1.957 6.168-3.465.789-.644 1.586-1.289 2.207-2.113.043-.031.144-.035.094-.11-.04-.058-.11-.015-.149.044-1.105.671-2.176 1.39-3.336 1.972-2.875 1.438-5.918 2.297-9.101 2.672-1.625.188-3.254.313-4.887.273-4.79-.113-9.39-1.003-13.629-3.355-.875-.488-1.715-1.039-2.57-1.562a2.344 2.344 0 0 1-.118-.09c-.035-.024-.07-.051-.105-.07-.004-.005-.031.03-.047.046.043.02.082.035.121.055l.086.121Zm20.09-7.16c-.02.715.168 1.387.45 2.031 1.093 2.512 4.116 3.102 5.964 1.168 1.793-1.875 1.598-5.172-.402-6.808a3.465 3.465 0 0 0-4.38.015c-1.128.934-1.589 2.168-1.632 3.594Zm-10.336-4.379c-.695-.031-1.316.172-1.887.543-2.293 1.48-2.64 5.086-.687 7.078 1.445 1.473 3.598 1.484 5.055.027 1.363-1.367 1.722-3.613.832-5.398-.68-1.367-1.739-2.195-3.313-2.25Zm0 0"/>
</svg>
